src/topics/icons/intellij-idea.svg

<svg height="256" preserveAspectRatio="xMidYMid" viewBox="0 0 256 256" width="256" xmlns="http://www.w3.org/2000/svg" xmlns:xlink="http://www.w3.org/1999/xlink"><linearGradient id="a" x1="0%" x2="99.798658%" y1="50%" y2="50%"><stop offset=".26" stop-color="#f97a12"/><stop offset=".46" stop-color="#b07b58"/><stop offset=".72" stop-color="#577bae"/><stop offset=".91" stop-color="#1e7ce5"/><stop offset="1" stop-color="#087cfa"/></linearGradient><linearGradient id="b" x1=".344828%" x2="121.182266%" y1="34.539683%" y2="77.619048%"><stop offset="0" stop-color="#f97a12"/><stop offset=".07" stop-color="#cb7a3e"/><stop offset=".15" stop-color="#9e7b6a"/><stop offset=".24" stop-color="#757b91"/><stop offset=".33" stop-color="#537bb1"/><stop offset=".43" stop-color="#387ccc"/><stop offset=".54" stop-color="#237ce0"/><stop offset=".66" stop-color="#147cef"/><stop offset=".79" stop-color="#0b7cf7"/><stop offset="1" stop-color="#087cfa"/></linearGradient><linearGradient id="c" x1="78.169014%" x2="30.105634%" y1="97.749361%" y2="-6.624041%"><stop offset="0" stop-color="#fe315d"/><stop offset=".08" stop-color="#cb417e"/><stop offset=".16" stop-color="#9e4e9b"/><stop offset=".25" stop-color="#755bb4"/><stop offset=".34" stop-color="#5365ca"/><stop offset=".44" stop-color="#386ddb"/><stop offset=".54" stop-color="#2374e9"/><stop offset=".66" stop-color="#1478f3"/><stop offset=".79" stop-color="#0b7bf8"/><stop offset="1" stop-color="#087cfa"/></linearGradient><linearGradient id="d" x1="20%" x2="103.421589%" y1="24.086539%" y2="132.676282%"><stop offset="0" stop-color="#fe315d"/><stop offset=".04" stop-color="#f63462"/><stop offset=".1" stop-color="#df3a71"/><stop offset=".17" stop-color="#c24383"/><stop offset=".29" stop-color="#ad4a91"/><stop offset=".55" stop-color="#755bb4"/><stop offset=".92" stop-color="#1d76ed"/><stop offset="1" stop-color="#087cfa"/></linearGradient><path d="m64.8 199.6-62-48.8 30.8-57.2 88.4 34.4z" fill="url(#a)"/><path d="m256 68.4-4.8 148-98.4 39.6-59.2-38.4 86.4-89.6-37.6-83.2 34-40.8z" fill="url(#b)"/><path d="m256 68.4-78 92-35.6-115.6 34-40.8z" fill="url(#c)"/><path d="m123.2 212.4-102.4 37.2 16.4-57.6 21.2-71.2-58.4-19.6 37.2-101.2 80 9.6 79.2 90.4z" fill="url(#d)"/><path d="m48 48h160v160h-160z"/><path d="m63.2 178h60v10h-60zm42.8-97.2v-12h-32.8v12h9.2v42h-9.2v12.4h32.8v-12.4h-9.2v-42zm32 55.2c-4.566649.205984-9.110237-.757807-13.2-2.8-3.346034-1.845975-6.327998-4.285763-8.8-7.2l9.2-10.4c1.661272 1.82513 3.542265 3.43741 5.6 4.8 1.93613 1.135124 4.157474 1.69046 6.4 1.6 2.466127.188479 4.864692-.860893 6.4-2.8 1.852667-2.386058 2.712461-5.395334 2.4-8.4v-42.8h14.8v43.2c.151789 3.537935-.391805 7.071293-1.6 10.4-1.055421 3.377032-2.987809 6.413641-5.6 8.8-4.533251 3.365567-9.961237 5.314074-15.6 5.6z" fill="#fff"/></svg>

<?xml version="1.0" encoding="UTF-8" standalone="no"?>
<svg width="256px" height="256px" viewBox="0 0 256 256" version="1.1" xmlns="http://www.w3.org/2000/svg" xmlns:xlink="http://www.w3.org/1999/xlink" preserveAspectRatio="xMidYMid">
    <defs>
        <linearGradient x1="0%" y1="50%" x2="99.7986577%" y2="50%" id="linearGradient-1">
            <stop stop-color="#F97A12" offset="26%"></stop>
            <stop stop-color="#B07B58" offset="46%"></stop>
            <stop stop-color="#577BAE" offset="72%"></stop>
            <stop stop-color="#1E7CE5" offset="91%"></stop>
            <stop stop-color="#087CFA" offset="100%"></stop>
        </linearGradient>
        <linearGradient x1="0.344827586%" y1="34.5396825%" x2="121.182266%" y2="77.6190476%" id="linearGradient-2">
            <stop stop-color="#F97A12" offset="0%"></stop>
            <stop stop-color="#CB7A3E" offset="7%"></stop>
            <stop stop-color="#9E7B6A" offset="15%"></stop>
            <stop stop-color="#757B91" offset="24%"></stop>
            <stop stop-color="#537BB1" offset="33%"></stop>
            <stop stop-color="#387CCC" offset="43%"></stop>
            <stop stop-color="#237CE0" offset="54%"></stop>
            <stop stop-color="#147CEF" offset="66%"></stop>
            <stop stop-color="#0B7CF7" offset="79%"></stop>
            <stop stop-color="#087CFA" offset="100%"></stop>
        </linearGradient>
        <linearGradient x1="78.1690141%" y1="97.7493606%" x2="30.1056338%" y2="-6.62404092%" id="linearGradient-3">
            <stop stop-color="#FE315D" offset="0%"></stop>
            <stop stop-color="#CB417E" offset="8%"></stop>
            <stop stop-color="#9E4E9B" offset="16%"></stop>
            <stop stop-color="#755BB4" offset="25%"></stop>
            <stop stop-color="#5365CA" offset="34%"></stop>
            <stop stop-color="#386DDB" offset="44%"></stop>
            <stop stop-color="#2374E9" offset="54%"></stop>
            <stop stop-color="#1478F3" offset="66%"></stop>
            <stop stop-color="#0B7BF8" offset="79%"></stop>
            <stop stop-color="#087CFA" offset="100%"></stop>
        </linearGradient>
        <linearGradient x1="20%" y1="24.0865385%" x2="103.421589%" y2="132.676282%" id="linearGradient-4">
            <stop stop-color="#FE315D" offset="0%"></stop>
            <stop stop-color="#F63462" offset="4%"></stop>
            <stop stop-color="#DF3A71" offset="10%"></stop>
            <stop stop-color="#C24383" offset="17%"></stop>
            <stop stop-color="#AD4A91" offset="29%"></stop>
            <stop stop-color="#755BB4" offset="55%"></stop>
            <stop stop-color="#1D76ED" offset="92%"></stop>
            <stop stop-color="#087CFA" offset="100%"></stop>
        </linearGradient>
    </defs>
	<g>
		<polygon fill="url(#linearGradient-1)" points="64.8 199.6 2.8 150.8 33.6 93.6 122 128"></polygon>
		<polygon fill="url(#linearGradient-2)" points="256 68.4 251.2 216.4 152.8 256 93.6 217.6 180 128 142.4 44.8 176.4 4"></polygon>
		<polygon fill="url(#linearGradient-3)" points="256 68.4 178 160.4 142.4 44.8 176.4 4"></polygon>
		<polygon fill="url(#linearGradient-4)" points="123.2 212.4 20.8 249.6 37.2 192 58.4 120.8 0 101.2 37.2 0 117.2 9.6 196.4 100"></polygon>
		<rect fill="#000000" x="48" y="48" width="160" height="160"></rect>
		<path d="M63.2,178 L123.2,178 L123.2,188 L63.2,188 L63.2,178 Z M106,80.8 L106,68.8 L73.2,68.8 L73.2,80.8 L82.4,80.8 L82.4,122.8 L73.2,122.8 L73.2,135.2 L106,135.2 L106,122.8 L96.8,122.8 L96.8,80.8 L106,80.8 Z M138,136 C133.433351,136.205984 128.889763,135.242193 124.8,133.2 C121.453966,131.354025 118.472002,128.914237 116,126 L125.2,115.6 C126.861272,117.42513 128.742265,119.03741 130.8,120.4 C132.73613,121.535124 134.957474,122.09046 137.2,122 C139.666127,122.188479 142.064692,121.139107 143.6,119.2 C145.452667,116.813942 146.312461,113.804666 146,110.8 L146,68 L160.8,68 L160.8,111.2 C160.951789,114.737935 160.408195,118.271293 159.2,121.6 C158.144579,124.977032 156.212191,128.013641 153.6,130.4 C149.066749,133.765567 143.638763,135.714074 138,136 Z" fill="#FFFFFF"></path>
	</g>
</svg>
